branding/SquareAvatar.svg

<svg height="1024pt" viewBox="0 0 1024 1024" width="1024pt" xmlns="http://www.w3.org/2000/svg" xmlns:xlink="http://www.w3.org/1999/xlink"><clipPath id="a"><path d="m0 0h1024v1024h-1024z"/></clipPath><clipPath id="b"><path d="m0 0h1024v1024h-1024z"/></clipPath><g clip-path="url(#a)"><path d="m0 0h1024v1024h-1024z" fill="#fff"/><g clip-path="url(#b)"><path d="m28.891 1302.926c-42.346-93.955 20.336-352.862 106.755-604.89 11.54-33.655 23.219-65.823 35.036-96.505q139.67-362.65 305.094-448.37-5.659 68.461-3.06 93.914 2.599 25.453 7.203 45.249 52.675-3.737 123.843 3.442 71.169 7.18 121.934 26.852 51.963-43.86 94.317-64.218 42.354-20.359 112.999-30.854-99.86 380.698-101.23 522.551c-2.241 232.079 26.036 381.335 33.83 446.951 30.113 2.47 59.091-2.358 101.959-20.919 24.696-10.692 57.002-40.673 44.476-87.21-8.116-30.155-49.597-33.502-73.774-28.871-10.004 1.917-30.456.309-36.03-15.382-6.311-17.769 7.754-32.294 19.803-38.059 26.489-12.674 80.836-24.537 122.923 10.706 35.623 29.83 39.027 77.053 34.031 113.317-4.705 34.159-28.317 61.16-48.044 77.825-38.099 32.186-104.422 54.705-157.967 65.165-1.652 36.682-32.374 52.439-56.414 64.432-76.737 38.279-222.212 63.563-374.017 64.637-219.401 1.551-383.369-32.542-413.667-99.763z" fill="#446adb"/><g fill="#fff"><path d="m444.797 600.581c-.632-2.896-.048-5.853 1.656-8.378 1.583-2.519 4.181-4.234 7.083-4.745 2.896-.632 5.975-.054 8.372 1.535 2.525 1.704 4.234 4.18 4.866 7.076.669 3.627 1.934 6.979 3.68 10.186.943 1.783 2.361 3.298 3.888 4.564 1.642 1.138 3.4 2.148 5.372 2.538 3.34.931 6.893 1.242 10.422 1.066 3.772-.188 7.514-.985 11.116-2.141 1.917-.705 3.822-1.654 5.337-3.071 1.405-1.168 2.556-2.568 3.328-4.192 1.224-2.379 2.07-4.983 2.545-7.69.462-2.951 2.039-5.592 4.387-7.417 2.355-1.703 5.367-2.463 8.318-2 2.951.462 5.591 2.039 7.295 4.393 1.825 2.349 2.585 5.361 2.122 8.312-.84 5.165-2.429 10.002-4.76 14.632-2.106 4.253-5.087 8.061-8.72 11.048-3.742 3.237-8.014 5.645-12.699 7.099-5.519 1.861-11.196 2.998-17.031 3.411-5.841.291-11.602-.275-17.163-1.706-4.941-1.217-9.571-3.548-13.507-6.646-4.058-3.091-7.422-6.949-9.837-11.342-2.822-5.227-4.927-10.733-6.07-16.532z"/><path d="m444.457 379.186c23.638 4.721 8.357 51.83 1.972 72.139-6.386 20.308-20.07 67.995-39.875 64.952-19.805-3.044-15.875-51.278-7.748-80.311s22.014-61.5 45.651-56.78z"/><path d="m646.753 399.472c23.638 4.72 12.781 51.154 6.396 71.462-6.386 20.309-20.07 67.995-39.875 64.952s-15.875-51.278-7.748-80.31c8.127-29.033 17.59-60.825 41.227-56.104z"/></g></g><path d="m889.943 940.508h134.057v83.492h-134.057z" fill="#fff"/></g></svg>

<?xml version="1.0" encoding="UTF-8" standalone="no"?><!-- Generator: Gravit.io --><svg xmlns="http://www.w3.org/2000/svg" xmlns:xlink="http://www.w3.org/1999/xlink" style="isolation:isolate" viewBox="0 0 1024 1024" width="1024pt" height="1024pt"><defs><clipPath id="_clipPath_Wo387pKQ954vZKFBc2XNVO4SN5bohRHJ"><rect width="1024" height="1024"/></clipPath></defs><g clip-path="url(#_clipPath_Wo387pKQ954vZKFBc2XNVO4SN5bohRHJ)"><g/><rect x="0" y="0" width="1024" height="1024" transform="matrix(1,0,0,1,0,0)" fill="rgb(255,255,255)"/><clipPath id="_clipPath_BrzO2zs22T2hFxDwcprMIYlgXL5FeM5w"><rect x="0" y="0" width="1024" height="1024" transform="matrix(1,0,0,1,0,0)" fill="rgb(255,255,255)"/></clipPath><g clip-path="url(#_clipPath_BrzO2zs22T2hFxDwcprMIYlgXL5FeM5w)"><g><g><path d=" M 28.891 1302.926 C -13.455 1208.971 49.227 950.064 135.646 698.036 C 147.186 664.381 158.865 632.213 170.682 601.531 Q 310.352 238.881 475.776 153.161 Q 470.117 221.622 472.716 247.075 Q 475.315 272.528 479.919 292.324 Q 532.594 288.587 603.762 295.766 Q 674.931 302.946 725.696 322.618 Q 777.659 278.758 820.013 258.4 Q 862.367 238.041 933.012 227.546 Q 833.152 608.244 831.782 750.097 C 829.541 982.176 857.818 1131.432 865.612 1197.048 C 895.725 1199.518 924.703 1194.69 967.571 1176.129 C 992.267 1165.437 1024.573 1135.456 1012.047 1088.919 C 1003.931 1058.764 962.45 1055.417 938.273 1060.048 C 928.269 1061.965 907.817 1060.357 902.243 1044.666 C 895.932 1026.897 909.997 1012.372 922.046 1006.607 C 948.535 993.933 1002.882 982.07 1044.969 1017.313 C 1080.592 1047.143 1083.996 1094.366 1079 1130.63 C 1074.295 1164.789 1050.683 1191.79 1030.956 1208.455 C 992.857 1240.641 926.534 1263.16 872.989 1273.62 C 871.337 1310.302 840.615 1326.059 816.575 1338.052 C 739.838 1376.331 594.363 1401.615 442.558 1402.689 C 223.157 1404.24 59.189 1370.147 28.891 1302.926 Z " fill="rgb(68,106,219)"/><path d=" M 444.797 600.581 C 444.165 597.685 444.749 594.728 446.453 592.203 C 448.036 589.684 450.634 587.969 453.536 587.458 C 456.432 586.826 459.511 587.404 461.908 588.993 C 464.433 590.697 466.142 593.173 466.774 596.069 C 467.443 599.696 468.708 603.048 470.454 606.255 C 471.397 608.038 472.815 609.553 474.342 610.819 C 475.984 611.957 477.742 612.967 479.714 613.357 C 483.054 614.288 486.607 614.599 490.136 614.423 C 493.908 614.235 497.65 613.438 501.252 612.282 C 503.169 611.577 505.074 610.628 506.589 609.211 C 507.994 608.043 509.145 606.643 509.917 605.019 C 511.141 602.64 511.987 600.036 512.462 597.329 C 512.924 594.378 514.501 591.737 516.849 589.912 C 519.204 588.209 522.216 587.449 525.167 587.912 C 528.118 588.374 530.758 589.951 532.462 592.305 C 534.287 594.654 535.047 597.666 534.584 600.617 C 533.744 605.782 532.155 610.619 529.824 615.249 C 527.718 619.502 524.737 623.31 521.104 626.297 C 517.362 629.534 513.09 631.942 508.405 633.396 C 502.886 635.257 497.209 636.394 491.374 636.807 C 485.533 637.098 479.772 636.532 474.211 635.101 C 469.27 633.884 464.64 631.553 460.704 628.455 C 456.646 625.364 453.282 621.506 450.867 617.113 C 448.045 611.886 445.94 606.38 444.797 600.581 Z " fill="rgb(255,255,255)"/><path d=" M 444.457 379.186 C 468.095 383.907 452.814 431.016 446.429 451.325 C 440.043 471.633 426.359 519.32 406.554 516.277 C 386.749 513.233 390.679 464.999 398.806 435.966 C 406.933 406.933 420.82 374.466 444.457 379.186 Z " fill="rgb(255,255,255)"/><path d=" M 646.753 399.472 C 670.391 404.192 659.534 450.626 653.149 470.934 C 646.763 491.243 633.079 538.929 613.274 535.886 C 593.469 532.843 597.399 484.608 605.526 455.576 C 613.653 426.543 623.116 394.751 646.753 399.472 Z " fill="rgb(255,255,255)"/></g></g></g><rect x="889.943" y="940.508" width="134.057" height="83.492" transform="matrix(1,0,0,1,0,0)" fill="rgb(255,255,255)"/></g></svg>
